X:1
T:Valse à Sylvie
C:Composition : Bernard Loffet 1997
L:1/8
Q:330
M:3/4
K:C
z4zE|[AA,]E[AA,]B[cA,]B|[AA,]E[c2A,2]A,E|[AA,]E[AA,]B[cA,]B|[AD,]F[c2D,2]D,A|[BG,]A[BG,]c[dG,]c|[BG,]G[d2G,2]G,A|[BG,]A[BG,]c[dG,]B|[e2E,2]E,2E,E|[AA,]E[AA,]B[cA,]B| \
[AA,]E[c2A,2]A,E|[AA,]E[AA,]B[cA,]B|[AD,]F[c2D,2]D,A|[BG,]A[BG,]c[dG,]c|[BG,]G[d2G,2]G,B|[eE,]d[cE,]B[AA,]^G|[A2A,2]A,A[BA,]A|[F2D,2]D,A[BD,]A|[E2A,2]A,A[BA,]c| \
[d2G,2]G,G[cG,]d|[e2C,2]C,A[BC,]A|[F2D,2]D,A[BD,]A|[E2A,2]A,2A,E|[EE,]^F[^GE,]A[BE,]c|[A2A,2]A,A[BA,]A|[FD,]A[BD,]c[BD,]A|[EA,]A[BA,]c[BA,]A|[dG,]G[^FD,]G[cG,]d| \
[eC,]A[BC,]c[BC,]A|[FD,]D[ED,]F[AD,]F|[EA,]d[cA,]A[BA,]c|[eE,]d[cE,]B[AA,]^G|[A2A,2]A,2A,2| \
Z:Created with TablEdit http://www.tabledit.com/ by Bernard Loffet
